!!!!SEGMENT: pl-wtm--r-1447--002_stefani-jozef--spiewki-z-obrazku-dramatycznego-floryna-no-2.krn
!!!cenid: 18xx:2463
!!!COM: Stefani, Józef
!!!COM-rismID:
!!!CDT: 1800/04/16-1876/03/19
!!!CNT: Polish
!!!GTL: Śpiewki z Obrazku Dramatycznego Floryna
!!!OTL: No. 2
!!!PDT:
!!!AGN: Secular
!!!SMS-siglum: PL-Wtm
!!!SMS-shelfmark: R 1447
!!!SMS-shelfwork: 002 G
!!!SMS-variant:
!!!SMS-altvar:
!!!NIFC-rismSourceID: 1001116468
!!!NIFC-islandoraID: pl-wtm:25740
!!!URL-pdf-islandora: https://repozytorium.nifc.pl/islandora/object/pl-wtm%3A25740/datastream/PDF/view
!!!URL-scan: https://polish.musicsources.pl/pl/lokalizacje/galeria/rekopisy/6263 @EN{Scan on Polish Music Herritage in Open Access Website} @PL{Skany w portalu Dziedzictwo Muzyki Polskiej w otwartym dostępie}
!!!ONB-nifc: UWAGA: podział na pięć numerów (No. 1 – No. 5)
!!!OMD: andantino quasi Allegretto
!!!AIN: 2 empty
!!!key:
**kern	**kern	**dynam	**kern	**text	**dynam
*part2	*part2	*part2	*part1	*part1	*part1
*staff3	*staff2	*	*staff1	*staff1	*
*Iempty	*Ipiano	*	*Iempty	*	*
*	*I"Piano	*	*I"Floryna	*	*
*	*I'pf	*	*I'V	*	*
*clefF4	*clefG2	*	*clefG2	*	*
*k[f#]	*k[f#]	*	*k[f#]	*	*
*G:	*G:	*	*G:	*	*
*M6/8	*M6/8	*	*M6/8	*	*
=1	=1	=1	=1	=1	=1
16GG|>\LL	8bL 8g'\	f	2.r	.	.
(16G\	.	.	.	.	.
16F#\	(>8ee 8cc\	.	.	.	.
16G\	.	.	.	.	.
16F#\	8ddJ 8b\)	.	.	.	.
16G\JJ)	.	.	.	.	.
16GG|>\LL	(>4dd 4b\	.	.	.	.
(16G\	.	.	.	.	.
16F#\	.	.	.	.	.
16G\	.	.	.	.	.
16F#\	8b 8g/)	.	.	.	.
16G\JJ)	.	.	.	.	.
=2	=2	=2	=2	=2	=2
16GG|>\LL	8bL 8g'\	.	2.r	.	.
(16G\	.	.	.	.	.
16F#\	(8ee 8cc\	.	.	.	.
16G\	.	.	.	.	.
16F#\	8ddJ 8b\)	.	.	.	.
16G\JJ)	.	.	.	.	.
8E 8EE/	8gg 8b 8g\	.	.	.	.
8r	8r	.	.	.	.
8r	8r	.	.	.	.
=3	=3	=3	=3	=3	=3
8A 8G 8C#X 8AA\	(8b/L	p	2.r	.	.
8r	8a/)	.	.	.	.
8r	8a'/J	.	.	.	.
4.A 4.G 4.E 4.AA\	8a'/L	.	.	.	.
.	8b'/	.	.	.	.
.	8cc#X'/J	.	.	.	.
=4	=4	=4	=4	=4	=4
8A 8F# 8D\	8dd\	.	2.r	.	.
8r	8r	.	.	.	.
8r	8r	.	.	.	.
4.F# 4.FF#;/	4.ccn 4.a 4.d^;/	.	.	.	.
!!LO:PB:g=original
=5||	=5||	=5||	=5||	=5||	=5||
*^	*	*	*	*	*
4.GG`/	8GG\L	8.bL 8.d/	p	8.b/	Mi-	.
.	(8D\	.	.	.	.	.
.	.	16aK 16c/	.	16a/	-łe	.
.	8G\J)	8gJ 8B/	.	8g/	pod-	.
4.GG`/	8GG\L	8.bL 8.d/	.	8.b/	-da-	.
.	(8D\	.	.	.	.	.
.	.	16aK 16c/	.	16a/	-sza	.
.	8G\J)	8gJ 8B/	.	8g/	o-	.
=6	=6	=6	=6	=6	=6	=6
4.GG/	8GG\L	4.a 4.c/	.	4.a/	-kien-	.
.	(8D\	.	.	.	.	.
.	8F#\J)	.	.	.	.	.
4.GG/	8GG\L	4.d 4.c/	.	4.d/	-ko	.
.	(8D\	.	.	.	.	.
.	8F#\J)	.	.	.	.	.
=7	=7	=7	=7	=7	=7	=7
4.GG/	8GG\L	8.bL 8.d/	.	8.b/	Mi-	.
.	(8D\	.	.	.	.	.
.	.	16aK 16c/	.	16a/	-ła	.
.	8G\J)	8gJ 8B/	.	8g/	ty	.
4.GG/	8GG\L	8.bL 8.d/	.	8.b/	bied-	.
.	(8D\	.	.	.	.	.
.	.	16aK 16c/	.	16a/	-na	.
.	8G\J)	8gJ 8B/	.	8g/	su-	.
!!LO:LB:g=original
=8	=8	=8	=8	=8	=8	=8
8DD/L	4.DD\	4.a 4.f#/	.	(4a/	-kien-	.
(8AA/	.	.	.	.	.	.
8D/J)	.	.	.	8dd\)	.	.
8DD/L	4.DD\	4.dd 4.f#/	.	4.dd\	-ko,	.
(8AA/	.	.	.	.	.	.
8D/J)	.	.	.	.	.	.
*v	*v	*	*	*	*	*
=9	=9	=9	=9	=9	=9
8D#X 8DD#X/	8r	.	4b\	W to-	.
8r	8aL 8f# 8B/	.	.	.	.
8r	8aJ 8f# 8B/	.	8cc\	-bie	.
8D# 8DD#/	8r	.	4b\	wsty-	.
8r	8aL 8f# 8B/	.	.	.	.
8r	8aJ 8f# 8B/	.	8f#/	-dem	.
=10	=10	=10	=10	=10	=10
.	.	.	8qa/	.	.
8E 8EE/	8r	.	4g/	nie	.
8r	8gL 8e 8B/	.	.	.	.
8r	8gJ 8e 8B/	.	8f#/	za-	.
8E 8EE/	8r	.	4e/	-pło-	.
8r	8gL 8e 8B/	.	.	.	.
8r	8gJ 8e 8B/	.	8ee\	-nę,	.
=11	=11	=11	=11	=11	=11
8F# 8FF#\	8r	.	4dd\	Kie-	.
8r	8aL 8d 8c/	.	.	.	.
8r	8aJ 8d 8c/	.	8ee\	-dy	.
8F# 8FF#\	8r	.	4dd\	czu-	.
8r	8aL 8d 8c/	.	.	.	.
8r	8aJ 8d 8c/	.	8a/	-cie	.
!!LO:LB:g=original
=12	=12	=12	=12	=12	=12
.	.	.	8qcc/	.	.
8G 8GG\	8r	.	4b/	nie-	.
8r	8bL 8d 8B/	.	.	.	.
8r	8bJ 8d 8B/	.	8a/	-ska-	.
8G 8GG\	8r	.	4b/	-żo-	.
8r	8bL 8d 8B/	.	.	.	.
8r	8bJ 8d 8B/	.	8g/	-ne	.
=13	=13	=13	=13	=13	=13
*^	*	*	*	*	*
4.GG/	8GG\L	8bL 8d/	.	8b/	Choć	.
.	(8D\	8a 8c/	.	8a/	świe-	.
.	8G\J)	8gJ 8B/	.	8g/	-tna	.
4.GG/	8GG\L	8bL 8d/	.	8b/	bry-	.
.	(8D\	8a 8c/	.	8a/	-lan-	.
.	8G\J)	8gJ 8B/	.	8g/	-tów	.
*v	*v	*	*	*	*	*
=14	=14	=14	=14	=14	=14
4C 4CC/	4ee 4g 4e/	sf	4ee\	skra	.
8r;	8r;	.	8r;	.	.
4.C#X 4.CC#X^\	4.e 4.A#X 4.G/	.	4e/	Lecz	.
.	.	.	8g/	i	.
=15	=15	=15	=15	=15	=15
.	.	.	(8qe/	.	.
8D 8DD\	8d 8B 8G/	.	8d/L)	ser-	.
8r	8r	.	8c#X/J	.	.
8r	8r	.	8d/	-ce	.
4.D 4.DD\	4.f# 4.d 4.c 4.A/	.	4b/	blask	.
.	.	.	8a/	swój	.
!!LO:LB:g=original
=16	=16	=16	=16	=16	=16
8G 8GG\	8g 8d 8B/	.	8g/	ma	.
8r	8r	.	8r	.	.
8r	8r	.	8r	.	.
4G 4D 4GG\	4gg 4b 4g\	f	4r	.	.
8r	8r	.	8r	.	.
=17	=17	=17	=17	=17	=17
.	.	.	(8qb/	.	.
8D 8DD\	8r	.	8.a/)	la	.
8r	8f#L 8d 8c 8A/	.	.	.	.
.	.	.	16g#X/	la	.
8r	8f#J 8d 8c 8A/	.	8a/	la	.
8D 8DD\	8r	.	4.d/	la	.
8r	8f#L 8d 8c/	.	.	.	.
8r	8f#J 8d 8c/	.	.	.	.
=18	=18	=18	=18	=18	=18
.	.	.	(8qcc/	.	.
8G 8GG\	8r	.	8.b/)	la	.
8r	8gL 8d 8B/	.	.	.	.
!	!	!	!LO:SIC:v:s=16a#	!	!
.	.	.	16a/	la	.
8r	8gJ 8d 8B/	.	8b/	la	.
8G 8GG\	8r	.	4.g/	la	.
8r	8gL 8d 8B/	.	.	.	.
8r	8gJ 8d 8B/	.	.	.	.
=19	=19	=19	=19	=19	=19
.	.	.	(8qb/	.	.
8D 8DD\	8r	.	8.a/)	la	.
8r	8f#L 8d 8c 8A/	.	.	.	.
.	.	.	16g#X/	la	.
8r	8f#J 8d 8c 8A/	.	8a/	la	.
8D 8DD\	8r	.	4.dd\	la	.
8r	8f#L 8d 8c 8A/	.	.	.	.
8r	8f#J 8d 8c 8A/	.	.	.	.
!!LO:PB:g=original
=20	=20	=20	=20	=20	=20
8G 8GG\	8r	.	(8cc#X\L	la	.
8r	8gL 8d 8B/	.	8ee\J)	.	.
8r	8gJ 8d 8B/	.	8dd\	la	.
8G 8GG\	8r	.	4.b\	la	.
8r	8gL 8d 8B/	.	.	.	.
8r	8gJ 8d 8B/	.	.	.	.
=21	=21	=21	=21	=21	=21
.	.	.	(8qb/	.	.
8D 8DD\	8r	.	8.a/)	la	.
8r	8f#L 8d 8A/	.	.	.	.
.	.	.	16g#X/	la	.
8r	8f#J 8d 8A/	.	8a/	la	.
4.C 4.CC\	8r	.	4.d/	la	.
.	8f#L 8d 8A/	.	.	.	.
.	8f#J 8d 8A/	.	.	.	.
=22	=22	=22	=22	=22	=22
.	.	.	(8qee/	.	.
4.BB 4.BBB\	8r	.	8.dd\)	la	.
.	8gL 8d 8G/	.	.	.	.
.	.	.	16cc#X\	la	.
.	8gJ 8d 8G/	.	8dd\	la	.
8E 8EE\	8g 8e 8B/	.	8gg\	la	.
!	!	!	!LO:TX:a:Bi:t=rall.	!	!
8E\L	8gL 8B/	.	8g/	Gdy	.
8E-X\J	8aJ 8g 8c#X/	.	8a/	mi	.
!!LO:LB:g=original
=23	=23	=23	=23	=23	=23
8D\	8b 8g 8d/	.	(8b\L	mąz	.
8r	(8ee\L	.	8ee\J	.	.
8r	8dd\J)	.	8dd\)	pier-	.
.	8qdd/	.	8qdd/	.	.
4.c 4.F# 4.D\	8cc\L	.	8cc\L	-ścio-	.
.	8a\	.	8a\J	.	.
.	8b\J	.	8b\	-nek	.
=24	=24	=24	=24	=24	=24
.	(16qqb/LL	.	(16qqb/LL	.	.
.	16qqa/JJ	.	16qqa/JJ	.	.
4B 4G\	4g/)	.	4g/)	da.	.
8r	8r	.	8r	.	.
!	!LO:TX:a:Bi:t=a tempo.	!	!	!	!
16G 16GG\	16gg 16b 16g\	f	4r	.	.
16r	(16d/LL	.	.	.	.
8r	16e/	.	.	.	.
.	16f#/	.	.	.	.
8r	16g/	.	8r	.	.
.	16g#X/JJ)	.	.	.	.
=25	=25	=25	=25	=25	=25
.	(8qb/	.	.	.	.
*^	*	*	*	*	*
4.D/	8D\L	8.a/L)	.	2.r	.	.
.	8c 8F#\	.	.	.	.	.
.	.	16g#X/K	.	.	.	.
.	8cJ 8F#\	8a/J	.	.	.	.
4.D/	8D\L	4.d/	.	.	.	.
.	8c 8F#\	.	.	.	.	.
.	8cJ 8F#\	.	.	.	.	.
!!LO:LB:g=original
*v	*v	*	*	*	*	*
=26	=26	=26	=26	=26	=26
.	(8qcc/	.	.	.	.
8GG\L	8.b/L)	.	2.r	.	.
8B 8G 8D\	.	.	.	.	.
.	16a#X/K	.	.	.	.
8BJ 8G 8D\	8b/J	.	.	.	.
8GG\L	4.g/	.	.	.	.
8B 8G 8D\	.	.	.	.	.
8BJ 8G 8D\	.	.	.	.	.
=27	=27	=27	=27	=27	=27
.	(8qb/	.	.	.	.
*^	*	*	*	*	*
4.D/	8D\L	8.a/L)	.	2.r	.	.
.	8c 8F#\	.	.	.	.	.
.	.	16g#X/K	.	.	.	.
.	8cJ 8F#\	8a/J	.	.	.	.
4.D/	8D\L	4.dd\	.	.	.	.
.	8c 8F#\	.	.	.	.	.
.	8cJ 8F#\	.	.	.	.	.
*v	*v	*	*	*	*	*
=28	=28	=28	=28	=28	=28
8GG\L	8cc#X|>\L	.	2.r	.	.
8B 8G 8D\	(8ee\	.	.	.	.
8BJ 8G 8D\	8dd\J)	.	.	.	.
8GG\L	4.b\	.	.	.	.
8B 8G 8D\	.	.	.	.	.
8BJ 8G 8D\	.	.	.	.	.
=29	=29	=29	=29	=29	=29
.	(8qb/	.	.	.	.
*^	*	*	*	*	*
4.D/	8D\L	8.a/L)	.	2.r	.	.
.	8A 8F#\	.	.	.	.	.
.	.	16g#X/K	.	.	.	.
.	8AJ 8F#\	8a/J	.	.	.	.
4.C/	8C\L	4.d/	.	.	.	.
.	8A 8F# 8D\	.	.	.	.	.
.	8AJ 8F# 8D\	.	.	.	.	.
!!LO:LB:g=original
=30	=30	=30	=30	=30	=30	=30
.	.	(8qee/	.	.	.	.
4.BB/	8BB\L	8.dd\L)	.	2.r	.	.
.	8G 8D\	.	.	.	.	.
.	.	16cc#X\K	.	.	.	.
.	8GJ 8D\	8dd\J	.	.	.	.
8E 8EE/	8ryy	8gg 8b 8g^\	.	.	.	.
(8E\L	8ryy	(8gL 8B/	p	.	.	.
8E-X\J	8ryy	8aJ 8g 8c#X/	.	.	.	.
*v	*v	*	*	*	*	*
=31	=31	=31	=31	=31	=31
8D\)	8b 8g 8d/)	.	2.r	.	.
8r	(8ee\L	.	.	.	.
8r	8dd\J)	.	.	.	.
.	(8qdd/	.	.	.	.
4.c 4.F# 4.D\	8cc\L)	.	.	.	.
.	8a'\	.	.	.	.
.	8b'\J	.	.	.	.
=32	=32	=32	=32	=32	=32
.	(16qqb/LL	.	.	.	.
.	16qqa/JJ	.	.	.	.
8B 8G\	8g/)	.	2.r	.	.
8r	8r	.	.	.	.
8r	8r	.	.	.	.
4G 4D 4GG/	4gg 4b 4g\	f	.	.	.
!	!LO:TX:b:Bi:t=V&colon; S&colon;	!	!	!	!
8r	8r	.	.	.	.
!!LO:PB:g=original
=33	=33	=33	=33	=33	=33
8C#X 8CC#X/	8r	p	4a/	Za	.
8r	8gL 8e 8A/	.	.	.	.
8r	8gJ 8e 8A/	.	8a/	u-	.
.	.	.	(8qcc#X/	.	.
8C# 8CC#/	8r	.	4b/)	-miz-	.
8r	8gL 8e 8A/	.	.	.	.
8r	8gJ 8e 8A/	.	8a/	-gi	.
=34	=34	=34	=34	=34	=34
8D 8DD/	8r	.	4g#X/	i	.
8r	8f#L 8d 8A/	.	.	.	.
8r	8f#J 8d 8A/	.	8a/	za-	.
8D 8DD/	8r	.	4ff#\	-lo-	.
8r	8f#L 8d 8A/	.	.	.	.
8r	8f#J 8d 8A/	.	8dd\	-ty	.
=35	=35	=35	=35	=35	=35
8E 8EE/	8r	.	4cc#X\	pły-	.
8r	8gL 8c#X 8A/	.	.	.	.
8r	8gJ 8c# 8A/	.	8b\	-nie	.
8E 8EE/	8r	.	4a/	czę-	.
8r	8gL 8c# 8A/	.	.	.	.
8r	8gJ 8c# 8A/	.	8g/	-sto	.
=36	=36	=36	=36	=36	=36
8D 8DD/	8r	.	(8f#/L	po-	.
8r	8f#L 8d 8A/	.	8b/J)	.	.
8r	8f#J 8d 8A/	.	8a/	-tok	.
8D 8DD/	8r	.	4dd\	zło-	.
8r	8f#L 8d 8A/	.	.	.	.
8r	8f#J 8d 8A/	.	8a\	-ty	.
!!LO:LB:g=original
=37	=37	=37	=37	=37	=37
8C#X 8CC#X/	8r	.	4a/	Lecz	.
8r	8gL 8e 8A/	.	.	.	.
8r	8gJ 8e 8A/	.	8a/	dar	.
.	.	.	(8qcc#X/	.	.
8C# 8CC#/	8r	.	4b/)	zło-	.
8r	8gL 8e 8A/	.	.	.	.
8r	8gJ 8e 8A/	.	8a/	-ta	.
=38	=38	=38	=38	=38	=38
8D 8DD/	8r	.	4g#X/	choć	.
8r	8f#L 8d 8A/	.	.	.	.
8r	8f#J 8d 8A/	.	8a/	go	.
8D 8DD/	8r	.	4ff#\	ma-	.
8r	8f#L 8d 8A/	.	.	.	.
8r	8f#J 8d 8A/	.	8dd\	-my	.
=39	=39	=39	=39	=39	=39
8G 8GG\	8r	.	4cc#X\	Nie-	.
8r	8gL 8e 8B/	.	.	.	.
8r	8gJ 8e 8B/	.	8b\	-wy-	.
8GG 8GGG/	8r	.	4g/	-ba-	.
8r	8gL 8e 8B-X/	.	.	.	.
8r	8gJ 8e 8B-/	.	8e/	-wi	.
=40	=40	=40	=40	=40	=40
!	!	!	!	!	!LO:HP:a
8AA 8AAA/	8r	.	(16c#X/LL	z ser-	<
.	.	.	16b/JJ)	.	.
!	!	!	!	!	!LO:HP:a
8r	8gL 8c#X 8A/	.	8a/	-ca	[ >
8r	8gJ 8c# 8A/	.	8a/	pla-	.
4.D 4.DD^;/	4.f# 4.d 4.cn 4.A;/	.	4.d;/	-my	]
!!LO:LB:g=original
=41	=41	=41	=41	=41	=41
16GG|>\LL	8bL 8g'/	f	(8b\L	Dla	.
(16G\	.	.	.	.	.
16F#\	(8ee 8cc/	.	8ee\J)	.	.
16G\	.	.	.	.	.
16F#\	8ddJ 8b/)	.	8dd\	mnie	.
16G\JJ)	.	.	.	.	.
16GG|>\LL	4dd 4b\	.	4dd\	war-	.
(16G\	.	.	.	.	.
16F#\	.	.	.	.	.
16G\	.	.	.	.	.
16F#\	8b 8g\	.	8b\	-tość	.
16G\JJ)	.	.	.	.	.
=42	=42	=42	=42	=42	=42
*	*^	*	*	*	*
16GG'<|>\LL	8b|>L 8g\	8ryy	.	(8b\L	tyl-	.
(16G\	.	.	.	.	.	.
16F#\	(8ee 8cc\	8ryy	.	8ee\J)	.	.
16G\	.	.	.	.	.	.
16F#\	8ddJ 8b\)	8ryy	.	8dd\	-ko	.
16G\JJ)	.	.	.	.	.	.
8E 8EE\	8dd 8b;\	8ryy	.	8dd;\	ma	.
4C#X/	8g/L	4e\	p <	8g/	gdy	.
.	8a/J	.	.	8a/	mi	.
*	*v	*v	*	*	*	*
=43	=43	=43	=43	=43	=43
8D\	8b 8g 8d/	[	8b/	mąż,	.
8r	8r	.	8r	.	.
8r	8r	.	8r	.	.
8D 8DD\	8f# 8d 8c/	.	8cc\	pier-	.
8r	8r	.	8e/	-ścio-	.
8r	8r	.	8f#/	-nek	.
=44	=44	=44	=44	=44	=44
8G 8GG\	8g 8d 8B/	.	8g/	da,	.
8r	8r	.	8r	.	.
8r	8r	.	8r	.	.
4G 4D 4GG\	4gg 4b 4g\	f	4r	.	.
8r	8r	.	8r	.	.
!!LO:LB:g=original
=45	=45	=45	=45	=45	=45
.	.	.	(8qb/	.	.
8D 8DD/	8r	p	8.a/)	la	.
8r	8f#L 8d 8c 8A/	.	.	.	.
.	.	.	16g#X/	la	.
8r	8f#J 8d 8c 8A/	.	8a/	la	.
8D 8DD/	8r	.	4.d/	la	.
8r	8f#L 8d 8c/	.	.	.	.
8r	8f#J 8d 8c/	.	.	.	.
=46	=46	=46	=46	=46	=46
.	.	.	(8qcc/	.	.
8G 8GG\	8r	.	8.b/)	la	.
8r	8gL 8d 8B/	.	.	.	.
.	.	.	16a#X/	la	.
8r	8gJ 8d 8B/	.	8b/	la	.
8G 8GG\	8r	.	4.g/	la	.
8r	8gL 8d 8B/	.	.	.	.
8r	8gJ 8d 8B/	.	.	.	.
=47	=47	=47	=47	=47	=47
.	.	.	(8qb/	.	.
8D 8DD/	8r	.	8.a/)	la	.
8r	8f#L 8d 8c 8A/	.	.	.	.
.	.	.	16g#X/	la	.
8r	8f#J 8d 8c 8A/	.	8a/	la	.
8D 8DD/	8r	.	4.dd\	la	.
8r	8f#L 8d 8c 8A/	.	.	.	.
8r	8f#J 8d 8c 8A/	.	.	.	.
=48	=48	=48	=48	=48	=48
8G 8GG\	8r	.	(8cc#X\L	la	.
8r	8gL 8d 8B/	.	8ee\J)	.	.
8r	8gJ 8d 8B/	.	8dd\	la	.
8G 8GG\	8r	.	4.b\	la	.
8r	8gL 8d 8B/	.	.	.	.
8r	8gJ 8d 8B/	.	.	.	.
!!LO:PB:g=original
=49	=49	=49	=49	=49	=49
.	.	.	(8qb/	.	.
8D 8DD/	8r	.	8.a/)	la	.
8r	8f#L 8d 8A/	.	.	.	.
.	.	.	16g#X/	la	.
8r	8f#J 8d 8A/	.	8a/	la	.
4.C 4.CC/	8r	.	4.d/	la	.
.	8f#L 8d 8A/	.	.	.	.
.	8f#J 8d 8A/	.	.	.	.
=50	=50	=50	=50	=50	=50
.	.	.	(8qee/	.	.
4.BB 4.BBB/	8r	.	8.dd\)	la	.
.	8gL 8d 8G/	.	.	.	.
.	.	.	16cc#X\	la	.
.	8gJ 8d 8G/	.	8dd\	la	.
8E 8EE\	8g 8e 8B/	.	8gg\	la	.
!	!	!	!LO:TX:a:Bi:t=rall.	!	!
8E\L	(>8gL 8B/	<	8g/	Gdy	.
8E-X\J	8aJ 8g 8c#X/	[[	8a/	mi	.
!!LO:LB:g=original
=51	=51	=51	=51	=51	=51
!	!LO:TX:t=P:problem=w źródle brak zakończenia łuku	!	!	!	!
8D\	8b 8g 8d/)	.	(8b\L	mąż	.
8r	(8ee\L	.	8ee\J	.	.
8r	8dd\J)	.	8dd\)	pier-	.
.	8qdd/	.	(8qdd/	.	.
4.c 4.F# 4.D\	8cc\L	.	8cc\L)	-ścio-	.
.	8a\J	.	8a\J	.	.
.	8b\	.	8b\	-nek	.
=52	=52	=52	=52	=52	=52
.	(16qqb/LL	.	(16qqb/LL	.	.
.	16qqa/JJ	.	16qqa/JJ	.	.
4B 4G\	4g/)	.	4g/)	da.	.
8r	8r	.	8r	.	.
4G 4D 4GG\	4gg 4b 4g\	f	4r	.	.
8r	8r	.	8r	.	.
==	==	==	==	==	==
*-	*-	*-	*-	*-	*-
!!!system-decoration: s1{(s2,s3)}
!!!RDF**kern: > = above
!!!RDF**kern: < = below
!!!RDF**kern: | = vertical stroke
!!!RDF**kern: N = linked
!!!RDF**kern: i = editorial accidental
!!!EED: Wojciech Jakubiak-Danek
!!!EEV: 2021-07-10
!!!ENC: Krzysztof Stępień
!!!END: 2021-07-05
